<?xml version="1.0" encoding="UTF-8"?>
<map version="1.10" tiledversion="1.11.2" orientation="orthogonal" renderorder="right-down" width="60" height="34" tilewidth="32" tileheight="32" infinite="0" nextlayerid="6" nextobjectid="1">
 <tileset firstgid="1" source="tile_set.tsx"/>
 <layer id="4" name="background" width="60" height="34">
  <data encoding="csv">
82,83,81,82,83,81,82,83,81,82,83,81,82,83,81,82,83,81,82,83,81,82,83,81,82,83,81,82,83,81,82,83,81,82,83,81,82,83,81,82,83,81,82,83,81,82,83,81,82,83,81,82,83,81,82,83,81,82,83,81,
82,83,81,82,83,81,82,83,81,82,83,81,82,83,81,82,83,81,82,83,81,82,83,81,82,83,81,82,83,81,82,83,81,82,83,81,82,83,81,82,83,81,82,83,81,82,83,81,82,83,81,82,83,81,82,83,81,82,83,81,
82,83,81,82,83,81,82,83,81,82,83,81,82,83,81,82,83,81,82,83,81,82,83,81,82,83,81,82,83,81,82,83,81,82,83,81,82,83,81,82,83,81,82,83,81,82,83,81,82,83,81,82,83,81,82,83,81,82,83,81,
82,83,81,82,83,81,82,83,81,82,83,81,82,83,81,82,83,81,82,83,81,82,83,81,82,83,81,82,83,81,82,83,81,82,83,81,82,83,81,82,83,81,82,83,81,82,83,81,82,83,81,82,83,81,82,83,81,82,83,81,
82,83,81,82,83,81,82,83,81,82,83,81,82,83,81,82,83,81,82,83,81,82,83,81,82,83,81,82,83,81,82,83,81,82,83,81,82,83,81,82,83,81,82,83,81,82,83,81,82,83,81,82,83,81,82,83,81,82,83,81,
82,83,81,82,83,81,82,83,81,82,83,81,82,83,81,82,83,81,82,83,81,82,83,81,82,83,81,82,83,81,82,83,81,82,83,81,82,83,81,82,83,81,82,83,81,82,83,81,82,83,81,82,83,81,82,83,81,82,83,81,
82,83,81,82,83,81,82,83,81,82,83,81,82,83,81,82,83,81,82,83,81,82,83,81,82,83,81,82,83,81,82,83,81,82,83,81,82,83,81,82,83,81,82,83,81,82,83,81,82,83,81,82,83,81,82,83,81,82,83,81,
82,83,81,82,83,81,82,83,81,82,83,81,82,83,81,82,83,81,82,83,81,82,83,81,82,83,81,82,83,81,82,83,81,82,83,81,82,83,81,82,83,81,82,83,81,82,83,81,82,83,81,82,83,81,82,83,81,82,83,81,
82,83,81,82,83,81,82,83,81,82,83,81,82,83,81,82,83,81,82,83,81,82,83,81,82,83,81,82,83,81,82,83,81,82,83,81,82,83,81,82,83,81,82,83,81,82,83,81,82,83,81,82,83,81,82,83,81,82,83,81,
82,83,81,82,83,81,82,83,81,82,83,81,82,83,81,82,83,81,82,83,81,82,83,81,82,83,81,82,83,81,82,83,81,82,83,81,82,83,81,82,83,81,82,83,81,82,83,81,82,83,81,82,83,81,82,83,81,82,83,81,
82,83,81,82,83,81,82,83,81,82,83,81,82,83,81,82,83,81,82,83,81,82,83,81,82,83,81,82,83,81,82,83,81,82,83,81,82,83,81,82,83,81,82,83,81,82,83,81,82,83,81,82,83,81,82,83,81,82,83,81,
82,83,81,82,83,81,82,83,81,82,83,81,82,83,81,82,83,81,82,83,81,82,83,81,82,83,81,82,83,81,82,83,81,82,83,81,82,83,81,82,83,81,82,83,81,82,83,81,82,83,81,82,83,81,82,83,81,82,83,81,
82,83,81,82,83,81,82,83,81,82,83,81,82,83,81,82,83,81,82,83,81,82,83,81,82,83,81,82,83,81,82,83,81,82,83,81,82,83,81,82,83,81,82,83,81,82,83,81,82,83,81,82,83,81,82,83,81,82,83,81,
82,83,81,82,83,81,82,83,81,82,83,81,82,83,81,82,83,81,82,83,81,82,83,81,82,83,81,82,83,81,82,83,81,82,83,81,82,83,81,82,83,81,82,83,81,82,83,81,82,83,81,82,83,81,82,83,81,82,83,81,
82,83,81,82,83,81,82,83,81,82,83,81,82,83,81,82,83,81,82,83,81,82,83,81,82,83,81,82,83,81,82,83,81,82,83,81,82,83,81,82,83,81,82,83,81,82,83,81,82,83,81,82,83,81,82,83,81,82,83,81,
82,83,81,82,83,81,82,83,81,82,83,81,82,83,81,82,83,81,82,83,81,82,83,81,82,83,81,82,83,81,82,83,81,82,83,81,82,83,81,82,83,81,82,83,81,82,83,81,82,83,81,82,83,81,82,83,81,82,83,81,
82,83,81,82,83,81,82,83,81,82,83,81,82,83,81,82,83,81,82,83,81,82,83,81,82,83,81,82,83,81,82,83,81,82,83,81,82,83,81,82,83,81,82,83,81,82,83,81,82,83,81,82,83,81,82,83,81,82,83,81,
82,83,81,82,83,81,82,83,81,82,83,81,82,83,81,82,83,81,82,83,81,82,83,81,82,83,81,82,83,81,82,83,81,82,83,81,82,83,81,82,83,81,82,83,81,82,83,81,82,83,81,82,83,81,82,83,81,82,83,81,
82,83,81,82,83,81,82,83,81,82,83,81,82,83,81,82,83,81,82,83,81,82,83,81,82,83,81,82,83,81,82,83,81,82,83,81,82,83,81,82,83,81,82,83,81,82,83,81,82,83,81,82,83,81,82,83,81,82,83,81,
82,83,81,82,83,81,82,83,81,82,83,81,82,83,81,82,83,81,82,83,81,82,83,81,82,83,81,82,83,81,82,83,81,82,83,81,82,83,81,82,83,81,82,83,81,82,83,81,82,83,81,82,83,81,82,83,81,82,83,81,
82,83,81,82,83,81,82,83,81,82,83,81,82,83,81,82,83,81,82,83,81,82,83,81,82,83,81,82,83,81,82,83,81,82,83,81,82,83,81,82,83,81,82,83,81,82,83,81,82,83,81,82,83,81,82,83,81,82,83,81,
82,83,81,82,83,81,82,83,81,82,83,81,82,83,81,82,83,81,82,83,81,82,83,81,82,83,81,82,83,81,82,83,81,82,83,81,82,83,81,82,83,81,82,83,81,82,83,81,82,83,81,82,83,81,82,83,81,82,83,81,
82,83,81,82,83,81,82,83,81,82,83,81,82,83,81,82,83,81,82,83,81,82,83,81,82,83,81,82,83,81,82,83,81,82,83,81,82,83,81,82,83,81,82,83,81,82,83,81,82,83,81,82,83,81,82,83,81,82,83,81,
82,83,81,82,83,81,82,83,81,82,83,81,82,83,81,82,83,81,82,83,81,82,83,81,82,83,81,82,83,81,82,83,81,82,83,81,82,83,81,82,83,81,82,83,81,82,83,81,82,83,81,82,83,81,82,83,81,82,83,81,
82,83,81,82,83,81,82,83,81,82,83,81,82,83,81,82,83,81,82,83,81,82,83,81,82,83,81,82,83,81,82,83,81,82,83,81,82,83,81,82,83,81,82,83,81,82,83,81,82,83,81,82,83,81,82,83,81,82,83,81,
82,83,81,82,83,81,82,83,81,82,83,81,82,83,81,82,83,81,82,83,81,82,83,81,82,83,81,82,83,81,82,83,81,82,83,81,82,83,81,82,83,81,82,83,81,82,83,81,82,83,81,82,83,81,82,83,81,82,83,81,
82,83,81,82,83,81,82,83,81,82,83,81,82,83,81,82,83,81,82,83,81,82,83,81,82,83,81,82,83,81,82,83,81,82,83,81,82,83,81,82,83,81,82,83,81,82,83,81,82,83,81,82,83,81,82,83,81,82,83,81,
82,83,81,82,83,81,82,83,81,82,83,81,82,83,81,82,83,81,82,83,81,82,83,81,82,83,81,82,83,81,82,83,81,82,83,81,82,83,81,82,83,81,82,83,81,82,83,81,82,83,81,82,83,81,82,83,81,82,83,81,
82,83,81,82,83,81,82,83,81,82,83,81,82,83,81,82,83,81,82,83,81,82,83,81,82,83,81,82,83,81,82,83,81,82,83,81,82,83,81,82,83,81,82,83,81,82,83,81,82,83,81,82,83,81,82,83,81,82,83,81,
82,83,81,82,83,81,82,83,81,82,83,81,82,83,81,82,83,81,82,83,81,82,83,81,82,83,81,82,83,81,82,83,81,82,83,81,82,83,81,82,83,81,82,83,81,82,83,81,82,83,81,82,83,81,82,83,81,82,83,81,
82,83,81,82,83,81,82,83,81,82,83,81,82,83,81,82,83,81,82,83,81,82,83,81,82,83,81,82,83,81,82,83,81,82,83,81,82,83,81,82,83,81,82,83,81,82,83,81,82,83,81,82,83,81,82,83,81,82,83,81,
82,83,81,82,83,81,82,83,81,82,83,81,82,83,81,82,83,81,82,83,81,82,83,81,82,83,81,82,83,81,82,83,81,82,83,81,82,83,81,82,83,81,82,83,81,82,83,81,82,83,81,82,83,81,82,83,81,82,83,81,
82,83,81,82,83,81,82,83,81,82,83,81,82,83,81,82,83,81,82,83,81,82,83,81,82,83,81,82,83,81,82,83,81,82,83,81,82,83,81,82,83,81,82,83,81,82,83,81,82,83,81,82,83,81,82,83,81,82,83,81,
82,83,81,82,83,81,82,83,81,82,83,81,82,83,81,82,83,81,82,83,81,82,83,81,82,83,81,82,83,81,82,83,81,82,83,81,82,83,81,82,83,81,82,83,81,82,83,81,82,83,81,82,83,81,82,83,81,82,83,81
</data>
 </layer>
 <layer id="5" name="blocks" width="60" height="34">
  <data encoding="csv">
94,95,96,94,95,96,94,95,96,94,95,96,94,95,96,94,95,96,94,95,96,94,95,96,94,95,96,94,95,96,94,95,96,94,95,96,94,95,96,94,95,96,94,95,96,94,95,96,94,95,96,94,95,96,94,95,96,94,95,94,
74,0,0,0,0,0,0,0,0,0,0,0,0,0,0,0,0,0,0,0,0,0,0,74,74,74,74,74,74,74,0,0,0,0,0,0,0,0,0,0,0,0,0,0,0,0,0,0,0,0,0,0,0,74,74,0,0,0,0,74,
74,0,0,0,0,0,0,0,0,0,0,0,0,0,0,0,0,0,0,0,0,0,74,74,74,74,74,74,74,74,74,0,0,0,0,0,0,0,0,0,0,0,0,0,0,0,0,0,0,0,0,0,74,74,74,74,0,0,0,74,
74,0,0,0,0,0,0,0,0,0,0,0,0,0,0,0,0,0,0,0,0,74,74,74,74,74,74,74,74,74,74,74,0,0,0,0,0,0,0,0,0,0,0,0,0,0,0,0,0,0,0,74,74,74,74,74,74,0,0,74,
74,0,0,0,0,0,0,74,74,0,0,0,0,0,0,0,0,0,0,0,74,74,74,74,74,74,74,74,74,74,74,74,0,0,0,0,0,0,0,0,0,0,0,0,0,0,0,0,0,0,74,74,74,74,74,74,0,0,0,74,
94,0,0,0,0,0,74,74,74,74,0,0,0,0,0,0,0,0,0,0,0,74,74,74,74,74,74,74,74,74,74,0,0,0,0,0,0,0,0,0,0,74,74,0,0,0,0,0,0,0,0,74,74,74,74,74,0,0,0,94,
74,0,0,0,0,74,74,74,74,74,74,74,0,0,0,0,0,0,0,0,0,0,74,74,74,74,74,74,74,74,74,0,0,0,0,0,0,0,0,0,0,74,74,74,0,0,0,0,0,0,0,0,74,74,74,74,0,0,0,74,
74,0,0,0,0,0,74,74,74,74,74,0,0,0,0,0,0,0,0,0,0,0,0,0,74,74,74,74,74,74,0,0,0,0,0,0,0,0,0,0,74,74,74,74,74,0,0,0,0,0,0,0,0,0,74,0,0,0,0,74,
74,0,0,0,0,0,0,74,74,74,0,0,0,0,0,0,0,0,0,0,0,0,0,0,0,74,74,74,74,0,0,0,0,0,0,0,0,0,0,74,74,74,74,74,74,0,0,0,0,0,0,0,0,0,0,0,0,0,0,74,
74,0,0,0,0,0,0,0,74,0,0,0,0,0,0,0,0,0,0,0,0,0,0,0,0,0,74,74,0,0,0,0,0,0,0,0,0,0,0,0,74,74,74,74,74,74,0,0,0,0,0,0,0,0,0,0,0,0,0,74,
94,0,0,0,0,0,0,0,0,0,0,0,0,0,0,0,0,0,0,0,0,0,0,0,0,0,0,0,0,0,0,0,0,0,0,0,0,0,0,0,0,74,74,74,74,74,0,0,0,0,0,0,0,0,0,0,0,0,0,94,
74,0,0,0,0,0,0,0,0,0,0,0,0,0,0,0,0,0,0,0,0,0,0,0,0,0,0,0,0,0,0,0,0,0,0,0,0,0,0,0,0,74,74,0,0,0,0,0,0,0,0,0,0,0,0,0,0,0,0,74,
74,74,0,0,0,0,0,0,0,0,0,0,0,0,0,0,0,0,0,0,0,0,0,0,0,0,0,0,0,0,0,0,0,0,0,0,0,0,0,0,0,0,0,0,0,0,0,0,0,0,0,0,0,0,0,0,0,0,0,74,
74,74,74,0,0,0,0,0,0,0,0,0,0,0,0,0,0,0,0,0,0,0,0,0,0,0,0,0,0,0,0,0,0,0,0,0,0,0,0,0,0,0,0,0,0,0,0,0,0,0,0,0,0,0,0,0,0,0,0,74,
74,74,74,74,0,0,0,0,0,0,0,0,0,0,0,0,0,0,0,0,0,0,0,0,0,0,0,0,0,0,0,0,0,0,0,0,0,0,0,0,0,0,0,0,0,0,0,0,0,0,0,0,0,0,0,0,0,0,0,74,
94,74,74,74,0,0,0,0,0,0,0,0,0,0,0,0,0,0,0,0,0,0,0,0,0,0,0,0,0,0,0,0,0,0,0,0,0,0,0,0,0,0,0,0,0,0,0,0,0,0,0,0,0,0,0,0,0,0,0,94,
74,74,74,74,0,0,0,0,0,0,0,0,0,0,0,0,0,0,0,0,0,0,0,0,0,0,0,0,0,0,0,0,0,0,0,0,0,0,0,0,0,0,0,0,0,0,0,0,0,0,0,0,0,0,0,0,0,0,0,74,
74,74,74,74,0,0,0,0,0,0,0,0,0,0,0,0,0,0,0,0,0,0,0,0,0,0,0,0,0,0,0,0,0,0,0,0,0,0,0,0,0,0,0,0,0,0,0,0,0,0,0,0,0,0,0,0,0,0,0,74,
74,74,74,74,0,0,0,0,0,0,0,0,0,0,0,0,0,0,0,0,0,0,0,0,0,0,0,0,0,0,0,0,0,0,0,0,0,74,0,0,0,0,0,0,0,0,0,0,0,0,0,0,0,0,0,0,0,0,0,74,
94,74,74,0,0,0,0,0,0,0,0,0,0,0,0,0,0,0,0,0,0,0,0,0,0,0,0,0,0,0,0,0,0,0,0,0,74,74,74,0,0,0,0,0,0,0,0,0,0,0,0,0,0,0,0,0,0,0,0,94,
74,74,74,0,0,0,0,0,0,0,0,0,0,0,0,0,0,0,0,0,0,0,0,0,0,0,0,0,0,0,0,0,0,0,74,74,74,74,74,0,0,0,0,0,0,0,0,0,0,0,0,0,0,0,0,0,0,0,0,74,
74,0,0,0,0,0,0,0,0,0,0,0,0,0,0,74,0,0,0,0,0,0,0,0,0,0,0,0,0,0,0,0,0,74,74,74,74,74,74,74,0,0,0,0,0,0,0,0,0,74,74,0,0,0,0,0,0,0,0,74,
74,0,0,0,0,0,0,0,0,0,0,0,0,0,74,74,74,0,0,0,0,0,0,0,0,0,0,0,0,0,0,0,0,74,74,74,74,74,74,74,74,0,0,0,0,0,0,0,0,74,74,74,0,0,0,0,0,0,0,74,
74,0,0,0,0,0,0,0,0,0,0,0,74,74,74,74,74,74,74,0,0,0,0,0,0,0,0,0,0,0,0,0,0,0,74,74,74,74,74,74,0,0,0,0,0,0,0,0,74,74,74,74,0,0,0,0,0,0,0,74,
94,0,0,0,0,0,0,0,0,0,0,74,74,74,74,74,74,74,74,74,0,0,0,0,0,0,0,0,0,0,0,0,0,0,0,74,74,74,0,0,0,0,0,0,0,0,74,74,74,74,74,74,74,74,0,0,0,0,0,94,
74,0,0,0,0,0,0,0,0,0,74,74,74,74,74,74,74,74,74,0,0,0,0,0,0,0,0,0,0,0,0,0,0,0,0,0,74,0,0,0,0,0,0,0,0,74,74,74,74,74,74,74,74,74,74,0,0,0,0,74,
74,0,0,0,0,0,0,0,0,0,0,74,74,74,74,74,74,74,0,0,0,0,0,0,0,0,0,0,0,0,0,0,0,0,0,0,0,0,0,0,0,0,0,0,0,74,74,74,74,74,74,74,74,0,0,0,0,0,0,74,
74,0,0,0,0,0,0,0,0,0,0,0,74,74,74,74,74,0,0,0,0,0,0,0,0,0,0,0,0,0,0,0,0,0,0,0,0,0,0,0,0,0,0,0,0,0,74,74,74,74,74,0,0,0,0,0,0,0,0,74,
74,0,0,0,0,0,0,0,0,0,0,0,0,0,74,74,0,0,0,0,0,0,0,0,0,0,0,0,0,0,0,0,0,0,0,0,0,0,0,0,0,0,0,0,0,0,0,0,74,74,0,0,0,0,0,0,0,0,0,74,
94,74,74,0,0,0,0,0,0,0,0,0,0,0,0,0,0,0,0,0,0,0,0,0,0,0,0,0,0,74,74,74,0,0,0,0,0,0,0,0,0,0,0,0,0,0,0,0,0,0,0,0,0,0,0,0,0,0,74,94,
74,74,74,74,0,0,0,0,0,0,0,0,0,0,0,0,0,0,0,0,0,0,0,0,0,0,0,74,74,74,74,74,74,0,0,0,0,0,0,0,0,0,0,0,0,0,0,0,0,0,0,0,0,0,0,0,0,74,74,74,
74,74,74,74,74,0,0,0,0,0,0,0,0,0,0,0,0,0,0,0,0,0,0,0,0,0,74,74,74,74,74,74,74,74,0,0,0,0,0,0,0,0,0,0,0,0,0,0,0,0,0,0,0,0,0,0,74,74,74,74,
74,74,74,74,74,0,0,0,0,0,0,0,0,0,0,0,0,0,0,0,0,0,0,0,0,74,74,74,74,74,74,74,74,74,74,0,0,0,0,0,0,0,0,0,0,0,0,0,0,0,0,0,0,0,0,74,74,74,74,74,
74,95,96,94,95,96,94,95,96,94,95,96,94,95,96,94,95,96,94,95,96,94,95,96,94,95,96,94,95,96,94,95,96,94,95,96,94,95,96,94,95,96,94,95,96,94,95,96,94,95,96,94,95,96,94,95,74,74,74,74
</data>
 </layer>
</map>
